file/hpe.svg

<svg clip-rule="evenodd" fill-rule="evenodd" stroke-linejoin="round" stroke-miterlimit="1.41421" viewBox="0 0 560 400" xmlns="http://www.w3.org/2000/svg"><g fill-rule="nonzero" transform="matrix(2.44068 0 0 2.44068 949.443 -432.215)"><path d="m-300.717 239.575h-44.164v-8.188h44.164zm3.155-11.342h-50.474v14.495h50.474z" fill="#00b188"/><path d="m388.297 351.973c22.623 0 34.716 18.482 34.716 39.541 0 21.081-12.093 39.556-34.716 39.556-9.33 0-17.276-4.833-21.245-10.023v37.657h-14.342v-105.175h14.342v8.631c3.969-5.354 11.915-10.187 21.245-10.187zm-201.398 1.556h19.518v12.265h-19.518v40.926c0 8.63 4.491 11.572 12.607 11.572 2.242 0 4.662-.343 6.389-1.035h.522v12.256c-2.07.864-5.012 1.557-8.981 1.557-17.797 0-24.871-8.124-24.871-22.965v-42.311h-13.128v-12.265h13.128v-20.194h14.334zm422.492 42.311c1.556 15.37 11.4 22.794 25.042 22.794 8.475 0 14.514-1.899 21.245-6.91h.522v12.614c-6.211 4.833-14.335 6.732-23.665 6.732-22.28 0-37.479-14.856-37.479-38.685 0-23.836 14.164-40.412 34.716-40.412 20.91 0 31.782 15.027 31.782 37.3v6.567zm-379.488 0c1.556 15.37 11.408 22.794 25.05 22.794 8.467 0 14.506-1.899 21.245-6.91h.521v12.614c-6.218 4.833-14.342 6.732-23.665 6.732-22.287 0-37.486-14.856-37.486-38.685 0-23.836 14.164-40.412 34.723-40.412 20.903 0 31.782 15.027 31.782 37.3v6.567zm348.913-23.828h-.514c-6.211-5.012-13.478-7.953-22.459-7.953-8.98 0-13.992 3.976-13.992 9.33 0 6.047 5.526 7.767 17.797 11.743 10.88 3.448 22.965 7.938 22.965 22.444 0 15.548-12.778 23.494-29.182 23.494-10.023 0-20.039-2.42-25.743-6.911v-13.642h.693c6.396 5.868 15.89 8.46 24.871 8.46 8.116 0 15.377-3.113 15.377-9.673 0-6.732-6.039-8.288-17.969-12.257-10.708-3.455-22.622-7.432-22.622-21.759 0-14.684 12.086-23.315 27.463-23.315 8.98 0 16.926 1.899 23.315 6.218zm-70.295-18.482v75.984h-14.342v-75.984zm-409.55 75.983h-14.334v-75.984h14.334v11.051c4.491-7.082 12.093-12.607 22.801-12.607 17.098 0 26.599 11.229 26.599 29.697v47.843h-14.334v-47.493c0-9.845-5.012-16.926-15.891-16.926-8.98 0-16.583 5.704-19.175 13.813zm355.31 0h-14.335v-75.984h14.335v11.744c3.276-8.117 10.536-12.95 18.824-12.95 3.284 0 6.218.514 7.424 1.206v14.156h-.513c-2.071-1.027-5.526-1.549-8.981-1.549-7.774 0-14.334 5.176-16.754 13.814zm-140.948 0h-14.334v-75.984h14.334v11.744c3.284-8.117 10.545-12.95 18.825-12.95 3.291 0 6.225.514 7.432 1.206v14.156h-.514c-2.078-1.027-5.533-1.549-8.988-1.549-7.767 0-14.335 5.176-16.755 13.814zm-246.657-94.808h-51.649v32.98h46.809v12.786h-46.809v35.922h51.649v13.12h-66.676v-107.929h66.676zm319.201 83.408c14.163 0 22.459-11.222 22.459-26.599 0-15.191-8.296-26.584-22.459-26.584-7.774 0-15.027 4.662-18.825 12.078v29.198c3.798 7.417 11.051 11.907 18.825 11.907zm224.035-34.023h37.821c-.514-11.222-6.039-19.852-17.79-19.852-10.879 0-17.961 8.116-20.031 19.852zm-379.488 0h37.828c-.513-11.222-6.046-19.852-17.789-19.852-10.88 0-17.969 8.116-20.039 19.852zm270.836-61.3c5.012 0 9.152 3.969 9.152 8.981 0 5.011-4.14 8.98-9.152 8.98-4.832 0-9.159-3.969-9.159-8.98 0-5.012 4.327-8.981 9.159-8.981zm-171.865-34.73c-18.653 0-26.256-7.424-26.256-24.864v-84.793h22.801v83.237c0 5.354 2.07 7.253 6.561 7.253 1.556 0 3.805-.514 5.182-1.035h.35v18.824c-1.898.685-5.182 1.378-8.638 1.378zm37.315-33.323c2.763 11.907 12.093 15.012 21.416 15.012 8.124 0 13.992-1.72 21.252-6.218h.864v17.79c-6.218 4.498-15.027 6.739-25.743 6.739-23.836 0-40.069-15.027-40.069-39.712 0-24.015 15.891-40.591 36.964-40.591 22.973 0 34.373 15.37 34.373 38.342v8.638zm-242.167 0c2.77 11.907 12.093 15.012 21.423 15.012 8.117 0 13.985-1.72 21.237-6.218h.872v17.79c-6.218 4.498-15.035 6.739-25.743 6.739-23.836 0-40.069-15.027-40.069-39.712 0-24.015 15.89-40.591 36.964-40.591 22.972 0 34.373 15.37 34.373 38.342v8.638zm973.817 31.595h-22.12v-7.938c-4.83 6.218-12.43 9.666-22.79 9.666-19.7 0-32.31-17.954-32.31-40.062 0-22.109 12.61-40.241 32.31-40.241 10.01 0 17.27 3.113 22.11 8.809v-38.163h22.8zm-307.632-53.19h-.871c-5.012-3.798-10.88-6.046-17.611-6.046-11.401 0-20.039 7.781-20.039 20.902s8.638 20.723 20.039 20.723c6.731 0 12.599-2.248 17.611-6.054h.871v19.518c-5.704 4.147-13.3 5.875-21.416 5.875-22.801 0-40.256-15.362-40.256-40.062s17.455-40.241 40.256-40.241c8.116 0 15.712 1.728 21.416 5.868zm-281.343-23.665h16.925v18.304h-16.925v31.26c0 6.739 2.591 9.852 9.501 9.852 1.899 0 4.319-.179 6.911-1.043h.513v17.961c-2.934 1.043-7.424 2.242-13.984 2.242-18.49 0-25.743-8.46-25.743-27.977v-32.295h-29.19v31.26c0 6.739 2.592 9.852 9.494 9.852 1.907 0 4.327-.179 6.918-1.043h.514v17.961c-2.934 1.043-7.432 2.242-13.984 2.242-18.49 0-25.743-8.46-25.743-27.977v-32.295h-11.751v-18.304h11.751v-21.066h22.801v21.066h29.19v-21.066h22.802zm146.777 22.98h-.856v-18.311c5.868-3.448 16.241-6.389 26.42-6.389 23.151 0 35.758 11.051 35.758 30.397v48.178h-22.109v-7.595c-5.011 6.046-12.428 8.98-20.388 8.98-15.02 0-27.291-9.144-27.291-25.392 0-15.02 12.271-25.035 29.882-25.035 5.526 0 11.237.864 17.105 2.584v-1.37c0-8.296-4.662-11.915-16.918-11.915-7.782 0-15.206 2.234-21.603 5.868zm233.187 0h-.864v-18.311c5.876-3.448 16.241-6.389 26.428-6.389 23.158 0 35.765 11.051 35.765 30.397v48.178h-22.116v-7.595c-5.011 6.046-12.443 8.98-20.381 8.98-15.034 0-27.291-9.144-27.291-25.392 0-15.02 12.257-25.035 29.89-25.035 5.525 0 11.214.864 17.09 2.584v-1.37c0-8.296-4.662-11.915-16.926-11.915-7.767 0-15.206 2.234-21.595 5.868zm100.356 53.875h-22.793v-76.855h22.108v12.436c4.141-8.467 10.195-13.3 18.66-13.3 3.11 0 6.21.693 7.41 1.385v21.759h-.86c-2.59-1.042-5.69-1.728-10.01-1.728-7.083 0-12.608 4.148-14.515 12.086zm-161.849 0h-22.794v-107.936h22.794v61.478l22.98-30.397h25.906v.864l-27.634 34.887 27.634 40.241v.863h-26.085l-22.801-34.879zm-605.035 0h-20.552l-23.494-75.991v-.864h22.459l12.778 45.424 12.093-45.424h18.311l12.264 45.424 12.957-45.424h21.595v.864l-23.493 75.991h-20.56l-12.265-45.245zm-199.327 0h-23.494v-107.936h23.494v42.653h41.976v-42.653h23.493v107.936h-23.493v-44.731h-41.976zm564.786 0h-23.479v-107.936h40.234c23.843 0 39.563 12.778 39.563 36.614 0 23.494-15.72 36.264-39.563 36.264h-16.755zm106.403-24.178v-6.561c-3.455-1.891-7.938-2.584-12.607-2.584-7.424 0-11.914 2.756-11.914 8.973 0 6.397 4.49 9.16 11.222 9.16 6.389 0 11.229-3.284 13.299-8.988zm233.187 0v-6.561c-3.448-1.891-7.946-2.584-12.607-2.584-7.424 0-11.915 2.756-11.915 8.973 0 6.397 4.491 9.16 11.215 9.16 6.404 0 11.237-3.284 13.307-8.988zm147.69-1.899v-24.7c-3.8-5.526-8.81-7.938-14.52-7.938-10 0-16.74 7.26-16.74 20.381s6.74 20.202 16.74 20.202c5.71 0 10.72-2.42 14.52-7.945zm-951.017-21.245h27.983c-.521-7.938-3.797-13.471-12.956-13.471-6.911 0-12.957 2.942-15.027 13.471zm242.167 0h27.984c-.522-7.938-3.798-13.471-12.957-13.471-6.903 0-12.957 2.942-15.027 13.471zm236.426-40.755h-14.856v33.16h14.856c11.929 0 17.618-6.732 17.618-16.405 0-10.023-5.689-16.755-17.618-16.755z" fill="#231f20" transform="matrix(.134291 0 0 .134291 -348.036 228.233)"/></g></svg>

<?xml version="1.0" encoding="UTF-8" standalone="no"?>
<!DOCTYPE svg PUBLIC "-//W3C//DTD SVG 1.1//EN" "http://www.w3.org/Graphics/SVG/1.1/DTD/svg11.dtd">
<svg width="100%" height="100%" viewBox="0 0 560 400" version="1.1" xmlns="http://www.w3.org/2000/svg" xmlns:xlink="http://www.w3.org/1999/xlink" xml:space="preserve" xmlns:serif="http://www.serif.com/" style="fill-rule:evenodd;clip-rule:evenodd;stroke-linejoin:round;stroke-miterlimit:1.41421;">
    <g transform="matrix(2.44068,0,0,2.44068,949.443,-432.215)">
        <path id="path3346" d="M-300.717,239.575L-344.881,239.575L-344.881,231.387L-300.717,231.387L-300.717,239.575ZM-297.562,228.233L-348.036,228.233L-348.036,242.728L-297.562,242.728L-297.562,228.233Z" style="fill:rgb(0,177,136);fill-rule:nonzero;"/>
        <g id="path3350" transform="matrix(0.134291,0,0,0.134291,-348.036,228.233)">
            <path d="M388.297,351.973C410.92,351.973 423.013,370.455 423.013,391.514C423.013,412.595 410.92,431.07 388.297,431.07C378.967,431.07 371.021,426.237 367.052,421.047L367.052,458.704L352.71,458.704L352.71,353.529L367.052,353.529L367.052,362.16C371.021,356.806 378.967,351.973 388.297,351.973ZM186.899,353.529L206.417,353.529L206.417,365.794L186.899,365.794L186.899,406.72C186.899,415.35 191.39,418.292 199.506,418.292C201.748,418.292 204.168,417.949 205.895,417.257L206.417,417.257L206.417,429.513C204.347,430.377 201.405,431.07 197.436,431.07C179.639,431.07 172.565,422.946 172.565,408.105L172.565,365.794L159.437,365.794L159.437,353.529L172.565,353.529L172.565,333.335L186.899,333.335L186.899,353.529ZM609.391,395.84C610.947,411.21 620.791,418.634 634.433,418.634C642.908,418.634 648.947,416.735 655.678,411.724L656.2,411.724L656.2,424.338C649.989,429.171 641.865,431.07 632.535,431.07C610.255,431.07 595.056,416.214 595.056,392.385C595.056,368.549 609.22,351.973 629.772,351.973C650.682,351.973 661.554,367 661.554,389.273L661.554,395.84L609.391,395.84ZM229.903,395.84C231.459,411.21 241.311,418.634 254.953,418.634C263.42,418.634 269.459,416.735 276.198,411.724L276.719,411.724L276.719,424.338C270.501,429.171 262.377,431.07 253.054,431.07C230.767,431.07 215.568,416.214 215.568,392.385C215.568,368.549 229.732,351.973 250.291,351.973C271.194,351.973 282.073,367 282.073,389.273L282.073,395.84L229.903,395.84ZM578.816,372.012L578.302,372.012C572.091,367 564.824,364.059 555.843,364.059C546.863,364.059 541.851,368.035 541.851,373.389C541.851,379.436 547.377,381.156 559.648,385.132C570.528,388.58 582.613,393.07 582.613,407.576C582.613,423.124 569.835,431.07 553.431,431.07C543.408,431.07 533.392,428.65 527.688,424.159L527.688,410.517L528.381,410.517C534.777,416.385 544.271,418.977 553.252,418.977C561.368,418.977 568.629,415.864 568.629,409.304C568.629,402.572 562.59,401.016 550.66,397.047C539.952,393.592 528.038,389.615 528.038,375.288C528.038,360.604 540.124,351.973 555.501,351.973C564.481,351.973 572.427,353.872 578.816,358.191L578.816,372.012ZM508.521,353.53L508.521,429.514L494.179,429.514L494.179,353.53L508.521,353.53ZM98.971,429.513L84.637,429.513L84.637,353.529L98.971,353.529L98.971,364.58C103.462,357.498 111.064,351.973 121.772,351.973C138.87,351.973 148.371,363.202 148.371,381.67L148.371,429.513L134.037,429.513L134.037,382.02C134.037,372.175 129.025,365.094 118.146,365.094C109.166,365.094 101.563,370.798 98.971,378.907L98.971,429.513ZM454.281,429.513L439.946,429.513L439.946,353.529L454.281,353.529L454.281,365.273C457.557,357.156 464.817,352.323 473.105,352.323C476.389,352.323 479.323,352.837 480.529,353.529L480.529,367.685L480.016,367.685C477.945,366.658 474.49,366.136 471.035,366.136C463.261,366.136 456.701,371.312 454.281,379.95L454.281,429.513ZM313.333,429.513L298.999,429.513L298.999,353.529L313.333,353.529L313.333,365.273C316.617,357.156 323.878,352.323 332.158,352.323C335.449,352.323 338.383,352.837 339.59,353.529L339.59,367.685L339.076,367.685C336.998,366.658 333.543,366.136 330.088,366.136C322.321,366.136 315.753,371.312 313.333,379.95L313.333,429.513ZM66.676,334.705L15.027,334.705L15.027,367.685L61.836,367.685L61.836,380.471L15.027,380.471L15.027,416.393L66.676,416.393L66.676,429.513L0,429.513L0,321.584L66.676,321.584L66.676,334.705ZM385.877,418.113C400.04,418.113 408.336,406.891 408.336,391.514C408.336,376.323 400.04,364.93 385.877,364.93C378.103,364.93 370.85,369.592 367.052,377.008L367.052,406.206C370.85,413.623 378.103,418.113 385.877,418.113ZM609.912,384.09L647.733,384.09C647.219,372.868 641.694,364.238 629.943,364.238C619.064,364.238 611.982,372.354 609.912,384.09ZM230.424,384.09L268.252,384.09C267.739,372.868 262.206,364.238 250.463,364.238C239.583,364.238 232.494,372.354 230.424,384.09ZM501.26,322.79C506.272,322.79 510.412,326.759 510.412,331.771C510.412,336.782 506.272,340.751 501.26,340.751C496.428,340.751 492.101,336.782 492.101,331.771C492.101,326.759 496.428,322.79 501.26,322.79ZM329.395,288.06C310.742,288.06 303.139,280.636 303.139,263.196L303.139,178.403L325.94,178.403L325.94,261.64C325.94,266.994 328.01,268.893 332.501,268.893C334.057,268.893 336.306,268.379 337.683,267.858L338.033,267.858L338.033,286.682C336.135,287.367 332.851,288.06 329.395,288.06ZM366.71,254.737C369.473,266.644 378.803,269.749 388.126,269.749C396.25,269.749 402.118,268.029 409.378,263.531L410.242,263.531L410.242,281.321C404.024,285.819 395.215,288.06 384.499,288.06C360.663,288.06 344.43,273.033 344.43,248.348C344.43,224.333 360.321,207.757 381.394,207.757C404.367,207.757 415.767,223.127 415.767,246.099L415.767,254.737L366.71,254.737ZM124.543,254.737C127.313,266.644 136.636,269.749 145.966,269.749C154.083,269.749 159.951,268.029 167.203,263.531L168.075,263.531L168.075,281.321C161.857,285.819 153.04,288.06 142.332,288.06C118.496,288.06 102.263,273.033 102.263,248.348C102.263,224.333 118.153,207.757 139.227,207.757C162.199,207.757 173.6,223.127 173.6,246.099L173.6,254.737L124.543,254.737ZM1098.36,286.332L1076.24,286.332L1076.24,278.394C1071.41,284.612 1063.81,288.06 1053.45,288.06C1033.75,288.06 1021.14,270.106 1021.14,247.998C1021.14,225.889 1033.75,207.757 1053.45,207.757C1063.46,207.757 1070.72,210.87 1075.56,216.566L1075.56,178.403L1098.36,178.403L1098.36,286.332ZM790.728,233.142L789.857,233.142C784.845,229.344 778.977,227.096 772.246,227.096C760.845,227.096 752.207,234.877 752.207,247.998C752.207,261.119 760.845,268.721 772.246,268.721C778.977,268.721 784.845,266.473 789.857,262.667L790.728,262.667L790.728,282.185C785.024,286.332 777.428,288.06 769.312,288.06C746.511,288.06 729.056,272.698 729.056,247.998C729.056,223.298 746.511,207.757 769.312,207.757C777.428,207.757 785.024,209.485 790.728,213.625L790.728,233.142ZM509.385,209.477L526.31,209.477L526.31,227.781L509.385,227.781L509.385,259.041C509.385,265.78 511.976,268.893 518.886,268.893C520.785,268.893 523.205,268.714 525.797,267.85L526.31,267.85L526.31,285.811C523.376,286.854 518.886,288.053 512.326,288.053C493.836,288.053 486.583,279.593 486.583,260.076L486.583,227.781L457.393,227.781L457.393,259.041C457.393,265.78 459.985,268.893 466.887,268.893C468.794,268.893 471.214,268.714 473.805,267.85L474.319,267.85L474.319,285.811C471.385,286.854 466.887,288.053 460.335,288.053C441.845,288.053 434.592,279.593 434.592,260.076L434.592,227.781L422.841,227.781L422.841,209.477L434.592,209.477L434.592,188.411L457.393,188.411L457.393,209.477L486.583,209.477L486.583,188.411L509.385,188.411L509.385,209.477ZM656.162,232.457L655.306,232.457L655.306,214.146C661.174,210.698 671.547,207.757 681.726,207.757C704.877,207.757 717.484,218.808 717.484,238.154L717.484,286.332L695.375,286.332L695.375,278.737C690.364,284.783 682.947,287.717 674.987,287.717C659.967,287.717 647.696,278.573 647.696,262.325C647.696,247.305 659.967,237.29 677.578,237.29C683.104,237.29 688.815,238.154 694.683,239.874L694.683,238.504C694.683,230.208 690.021,226.589 677.765,226.589C669.983,226.589 662.559,228.823 656.162,232.457ZM889.349,232.457L888.485,232.457L888.485,214.146C894.361,210.698 904.726,207.757 914.913,207.757C938.071,207.757 950.678,218.808 950.678,238.154L950.678,286.332L928.562,286.332L928.562,278.737C923.551,284.783 916.119,287.717 908.181,287.717C893.147,287.717 880.89,278.573 880.89,262.325C880.89,247.305 893.147,237.29 910.78,237.29C916.305,237.29 921.994,238.154 927.87,239.874L927.87,238.504C927.87,230.208 923.208,226.589 910.944,226.589C903.177,226.589 895.738,228.823 889.349,232.457ZM989.705,286.332L966.912,286.332L966.912,209.477L989.02,209.477L989.02,221.913C993.161,213.446 999.215,208.613 1007.68,208.613C1010.79,208.613 1013.89,209.306 1015.09,209.998L1015.09,231.757L1014.23,231.757C1011.64,230.715 1008.54,230.029 1004.22,230.029C997.137,230.029 991.612,234.177 989.705,242.115L989.705,286.332ZM827.856,286.332L805.062,286.332L805.062,178.396L827.856,178.396L827.856,239.874L850.836,209.477L876.742,209.477L876.742,210.341L849.108,245.228L876.742,285.469L876.742,286.332L850.657,286.332L827.856,251.453L827.856,286.332ZM222.821,286.332L202.269,286.332L178.775,210.341L178.775,209.477L201.234,209.477L214.012,254.901L226.105,209.477L244.416,209.477L256.68,254.901L269.637,209.477L291.232,209.477L291.232,210.341L267.739,286.332L247.179,286.332L234.914,241.087L222.821,286.332ZM23.494,286.332L0,286.332L0,178.396L23.494,178.396L23.494,221.049L65.47,221.049L65.47,178.396L88.963,178.396L88.963,286.332L65.47,286.332L65.47,241.601L23.494,241.601L23.494,286.332ZM588.28,286.332L564.801,286.332L564.801,178.396L605.035,178.396C628.878,178.396 644.598,191.174 644.598,215.01C644.598,238.504 628.878,251.274 605.035,251.274L588.28,251.274L588.28,286.332ZM694.683,262.154L694.683,255.593C691.228,253.702 686.745,253.009 682.076,253.009C674.652,253.009 670.162,255.765 670.162,261.982C670.162,268.379 674.652,271.142 681.384,271.142C687.773,271.142 692.613,267.858 694.683,262.154ZM927.87,262.154L927.87,255.593C924.422,253.702 919.924,253.009 915.263,253.009C907.839,253.009 903.348,255.765 903.348,261.982C903.348,268.379 907.839,271.142 914.563,271.142C920.967,271.142 925.8,267.858 927.87,262.154ZM1075.56,260.255L1075.56,235.555C1071.76,230.029 1066.75,227.617 1061.04,227.617C1051.04,227.617 1044.3,234.877 1044.3,247.998C1044.3,261.119 1051.04,268.2 1061.04,268.2C1066.75,268.2 1071.76,265.78 1075.56,260.255ZM124.543,239.01L152.526,239.01C152.005,231.072 148.729,225.539 139.57,225.539C132.659,225.539 126.613,228.481 124.543,239.01ZM366.71,239.01L394.694,239.01C394.172,231.072 390.896,225.539 381.737,225.539C374.834,225.539 368.78,228.481 366.71,239.01ZM603.136,198.255L588.28,198.255L588.28,231.415L603.136,231.415C615.065,231.415 620.754,224.683 620.754,215.01C620.754,204.987 615.065,198.255 603.136,198.255Z" style="fill:rgb(35,31,32);fill-rule:nonzero;"/>
        </g>
    </g>
</svg>
